svg/24/logo-threads.svg

<svg width="24" height="24" viewBox="0 0 24 24" fill="currentColor" xmlns="http://www.w3.org/2000/svg"><path d="M16.4503 11.3209C16.3702 11.2825 16.2888 11.2455 16.2064 11.2101C16.0629 8.56513 14.6176 7.05087 12.1908 7.03537C12.1798 7.0353 12.1689 7.0353 12.1579 7.0353C10.7064 7.0353 9.49914 7.65489 8.7561 8.78234L10.0908 9.69789C10.6458 8.85572 11.517 8.67619 12.1585 8.67619C12.1659 8.67619 12.1734 8.67619 12.1807 8.67626C12.9798 8.68135 13.5827 8.91367 13.973 9.36673C14.257 9.69658 14.4469 10.1524 14.541 10.7276C13.8325 10.6072 13.0663 10.5702 12.2473 10.6171C9.94001 10.7501 8.45671 12.0957 8.55633 13.9655C8.60689 14.914 9.0794 15.73 9.88677 16.263C10.5694 16.7136 11.4486 16.934 12.3623 16.8841C13.569 16.8179 14.5156 16.3575 15.176 15.5157C15.6775 14.8764 15.9948 14.048 16.1348 13.0041C16.7099 13.3511 17.1361 13.8078 17.3715 14.3569C17.7717 15.2901 17.795 16.8237 16.5437 18.074C15.4473 19.1693 14.1294 19.6432 12.1377 19.6578C9.92834 19.6414 8.25744 18.9329 7.17107 17.5518C6.15377 16.2586 5.62802 14.3908 5.60841 12C5.62802 9.60926 6.15377 7.74136 7.17107 6.44817C8.25744 5.06713 9.92831 4.3586 12.1377 4.34218C14.363 4.35872 16.0631 5.07067 17.191 6.45836C17.7441 7.13888 18.1611 7.99467 18.436 8.99249L20 8.5752C19.6668 7.34699 19.1425 6.28863 18.429 5.4109C16.983 3.63181 14.8681 2.7202 12.1431 2.70129H12.1322C9.41279 2.72013 7.32159 3.63521 5.91673 5.4211C4.66659 7.01032 4.02174 9.22161 4.00007 11.9935L4 12L4.00007 12.0066C4.02174 14.7784 4.66659 16.9897 5.91673 18.579C7.32159 20.3648 9.41279 21.2799 12.1322 21.2987H12.1431C14.5608 21.282 16.265 20.649 17.6689 19.2463C19.5057 17.4113 19.4504 15.1111 18.845 13.6991C18.4107 12.6865 17.5826 11.864 16.4503 11.3209ZM12.2759 15.2456C11.2647 15.3025 10.2141 14.8486 10.1623 13.8764C10.1239 13.1556 10.6753 12.3512 12.338 12.2554C12.5284 12.2444 12.7152 12.2391 12.8988 12.2391C13.5027 12.2391 14.0677 12.2977 14.5814 12.41C14.3898 14.8027 13.266 15.1912 12.2759 15.2456Z"/></svg>

<svg xmlns="http://www.w3.org/2000/svg" width="24" height="24" fill="currentColor" viewBox="0 0 24 24">
  <path d="M16.45 11.32a6.495 6.495 0 0 0-.244-.11c-.143-2.645-1.588-4.16-4.015-4.175h-.033c-1.452 0-2.659.62-3.402 1.747l1.335.916c.555-.842 1.426-1.022 2.068-1.022h.022c.799.005 1.402.238 1.792.69.284.33.474.786.568 1.361a10.215 10.215 0 0 0-2.294-.11c-2.307.133-3.79 1.479-3.69 3.348.05.949.522 1.765 1.33 2.298.682.45 1.562.67 2.475.621 1.207-.066 2.154-.527 2.814-1.368.502-.64.819-1.468.959-2.512.575.347 1.001.804 1.236 1.353.4.933.424 2.467-.827 3.717-1.097 1.095-2.415 1.57-4.406 1.584-2.21-.017-3.88-.725-4.967-2.106C6.154 16.259 5.628 14.39 5.608 12c.02-2.39.546-4.259 1.563-5.552 1.086-1.381 2.757-2.09 4.967-2.106 2.225.017 3.925.729 5.053 2.116.553.68.97 1.537 1.245 2.534L20 8.575c-.333-1.228-.858-2.286-1.571-3.164-1.446-1.78-3.56-2.69-6.286-2.71h-.01c-2.72.019-4.811.934-6.216 2.72-1.25 1.59-1.895 3.8-1.917 6.572v.013c.022 2.772.667 4.984 1.917 6.573 1.405 1.786 3.496 2.7 6.215 2.72h.011c2.418-.017 4.122-.65 5.526-2.053 1.837-1.835 1.781-4.135 1.176-5.547-.434-1.013-1.262-1.835-2.395-2.378Zm-4.174 3.925c-1.011.057-2.062-.396-2.114-1.369-.038-.72.513-1.525 2.176-1.62a9.72 9.72 0 0 1 .56-.017c.605 0 1.17.059 1.683.17-.191 2.394-1.315 2.782-2.305 2.836Z"/>
</svg>
